X: 148
%
U:~=!turn!
T: The Duchess' Slipper
C:Neil Gow
O:Scotland
B:Keith Norman MacDonald : "The Skye collection of the best reels & strathspeys extant" : 1887
Z:Ralph Palmer
R:Strathspey
M:C|
L:1/8
K:G
B | D<G(B>G) (d>G)B>G | (D<G)B>G E<A TA2 | D<GB>G (d>G)B<g | (Td>c)TB>A G<G TG2 :|
(d<g) ~g2 (d>g)b>g | (Ta>g)b>g (e<a) ~a2 | (d<g) ~g2 (d>g)b>g | T(a>g)b>g (d<g) ~g2 |
(d<g) ~g2 (d>g)b>g | T(a>g)b>g (e<a) ~a2 | (g>b)(e>g) (d>g)B>g | T(d>c)TB>A G<G [B,G] |]


